src/pinterest.svg

<svg viewBox="0 0 16 16" fill="none" xmlns="http://www.w3.org/2000/svg"><path d="M7.99999 1C6.37265 1.00531 4.79801 1.57743 3.54683 2.61799C2.29564 3.65856 1.44609 5.10254 1.14426 6.70164C0.842435 8.30075 1.10718 9.95505 1.89299 11.3801C2.67879 12.8051 3.93655 13.9119 5.44999 14.51C5.346 13.8474 5.346 13.1726 5.44999 12.51L6.28999 9C6.15453 8.68384 6.08315 8.34394 6.07999 8C6.07999 7 6.64999 6.3 7.34999 6.3C7.58168 6.29731 7.80508 6.3861 7.97171 6.54711C8.13834 6.70812 8.23474 6.92835 8.23999 7.16V7.28C8.11426 8.07619 7.91679 8.85938 7.64999 9.62C7.61571 9.74941 7.60777 9.88438 7.62663 10.0169C7.64549 10.1494 7.69077 10.2768 7.75978 10.3915C7.82879 10.5063 7.92013 10.6059 8.02838 10.6847C8.13664 10.7634 8.2596 10.8197 8.38999 10.85C8.48902 10.8697 8.59095 10.8697 8.68999 10.85C9.93999 10.85 10.89 9.54 10.89 7.65C10.9089 6.9213 10.6387 6.21473 10.1385 5.68452C9.63822 5.15431 8.94855 4.84353 8.21999 4.82H7.99999C7.59781 4.79293 7.19431 4.84719 6.81357 4.97953C6.43283 5.11188 6.08266 5.31959 5.78398 5.59027C5.4853 5.86095 5.24423 6.18904 5.07517 6.55496C4.9061 6.92088 4.81251 7.31711 4.79999 7.72V7.86C4.80057 8.43478 4.98254 8.99471 5.31999 9.46C5.33754 9.4904 5.34678 9.52489 5.34678 9.56C5.34678 9.59511 5.33754 9.6296 5.31999 9.66C5.25999 9.87 5.13999 10.36 5.11999 10.45C5.09999 10.54 5.01999 10.61 4.87999 10.54C4.43789 10.2435 4.079 9.83887 3.83745 9.36452C3.5959 8.89018 3.47973 8.36192 3.49999 7.83C3.49999 5.63 5.09999 3.6 8.12999 3.6C8.66908 3.57168 9.20848 3.64985 9.71736 3.83003C10.2262 4.0102 10.6946 4.28887 11.0958 4.65011C11.497 5.01134 11.823 5.44807 12.0554 5.93534C12.2878 6.42262 12.4218 6.9509 12.45 7.49V7.64C12.45 10.05 10.93 11.99 8.81999 11.99C8.50769 12.001 8.19762 11.9335 7.91812 11.7937C7.63862 11.654 7.3986 11.4464 7.21999 11.19L6.77999 12.85C6.57636 13.5006 6.28358 14.1198 5.90999 14.69C6.87147 14.986 7.88547 15.0714 8.8829 14.9401C9.88034 14.8089 10.8378 14.4642 11.69 13.9296C12.5422 13.3949 13.2691 12.6829 13.8213 11.8419C14.3734 11.001 14.7378 10.0509 14.8897 9.05636C15.0415 8.06185 14.9772 7.0463 14.7011 6.0789C14.425 5.1115 13.9436 4.21497 13.2898 3.4504C12.6359 2.68583 11.825 2.07117 10.9121 1.64832C9.99927 1.22546 9.00601 1.00433 7.99999 1Z" fill="#111111"/></svg>

<svg viewBox="0 0 16 16" fill="none" xmlns="http://www.w3.org/2000/svg"><path d="M8 1a7 7 0 0 0-2.55 13.51 6.45 6.45 0 0 1 0-2L6.29 9a2.6 2.6 0 0 1-.21-1c0-1 .57-1.7 1.27-1.7a.88.88 0 0 1 .89.86v.12a13.37 13.37 0 0 1-.59 2.34 1 1 0 0 0 .74 1.23c.099.02.2.02.3 0 1.25 0 2.2-1.31 2.2-3.2a2.76 2.76 0 0 0-2.67-2.83H8a3 3 0 0 0-3.2 2.9v.14c0 .575.183 1.135.52 1.6a.2.2 0 0 1 0 .2c-.06.21-.18.7-.2.79-.02.09-.1.16-.24.09A3.12 3.12 0 0 1 3.5 7.83c0-2.2 1.6-4.23 4.63-4.23a4.11 4.11 0 0 1 4.32 3.89v.15c0 2.41-1.52 4.35-3.63 4.35a1.869 1.869 0 0 1-1.6-.8l-.44 1.66a7.38 7.38 0 0 1-.87 1.84A7 7 0 1 0 8 1Z" fill="#111111"/></svg>
